Papirus/24x24/apps/abiword.svg

<?xml version="1.0" encoding="UTF-8" standalone="no"?>
<svg xmlns="http://www.w3.org/2000/svg" height="24" width="24" version="1.1" viewBox="0 0 24 24">
 <path d="m12 2a10 10 0 0 0 -10 10 10 10 0 0 0 10 10 10 10 0 0 0 10 -10 10 10 0 0 0 -10 -10z" style="fill:#248afd;"/>
 <path opacity=".2" d="m2.0098 12.207a10 10 0 0 0 -0.0098 0.293 10 10 0 0 0 10 10 10 10 0 0 0 10 -10 10 10 0 0 0 -0.0098 -0.20703 10 10 0 0 1 -9.99 9.707 10 10 0 0 1 -9.9902 -9.793z"/>
 <path opacity=".2" d="m12 2a10 10 0 0 0 -10 10 10 10 0 0 0 0.0098 0.207 10 10 0 0 1 9.9902 -9.707 10 10 0 0 1 9.99 9.793 10 10 0 0 0 0.01 -0.293 10 10 0 0 0 -10 -10z" fill="#ffffff"/>
 <path style="opacity:0.2" d="M 12.205078 3.5039062 C 11.5213 3.4554644 10.81417 3.9719987 10.341797 4.4492188 C 8.3631046 6.4425076 7.1575505 9.043104 5.9765625 11.554688 C 5.0585303 13.535765 4.3651217 15.608209 3.7988281 17.714844 A 10 10 0 0 0 5.3417969 19.445312 C 5.390654 19.010457 5.5382758 18.533674 5.6230469 18.222656 C 6.5329559 15.269926 7.9434183 12.506359 9.2851562 9.734375 C 9.8163963 8.8585669 10.192551 7.6514261 11.263672 7.3144531 C 12.304071 7.1983341 12.98844 8.2099537 13.527344 8.9472656 C 15.604625 12.142882 17.564733 15.421667 19.3125 18.810547 A 10 10 0 0 0 19.890625 18.136719 C 18.690408 14.095551 17.145173 10.153344 14.984375 6.5292969 C 14.336316 5.5717558 13.745462 4.5320269 12.871094 3.7617188 C 12.658068 3.5973944 12.433004 3.5200535 12.205078 3.5039062 z M 16.423828 16.425781 C 13.236711 18.008408 9.9592801 19.489932 6.4941406 20.339844 A 10 10 0 0 0 8.3945312 21.326172 C 9.8283314 20.751521 11.218391 20.057795 12.556641 19.296875 C 13.941397 18.480117 15.271745 17.553484 16.423828 16.425781 z"/>
 <path style="fill:#cccccc;stroke-width:0.07753421px;" d="m 16.424795,15.925609 c -3.330544,1.653848 -6.7584084,3.205905 -10.3974655,4.03276 -1.1730047,-0.0057 -0.5942493,-1.539668 -0.4047885,-2.23478 0.9099086,-2.95273 2.3207882,-5.717103 3.6625264,-8.4890869 0.5312407,-0.8758081 0.9080466,-2.082832 1.9791676,-2.419805 1.040399,-0.116119 1.723988,0.8945205 2.262892,1.6318324 2.203581,3.3899115 4.284552,6.8685285 6.109696,10.4783555 C 20.099076,19.865758 20.551941,20.811241 21,21.758968 19.667682,16.296584 17.874411,10.878122 14.983495,6.0295351 14.335436,5.071994 13.745232,4.0329536 12.870864,3.2626455 12.01876,2.605348 10.970677,3.3130078 10.340846,3.9493012 8.3621532,5.9425901 7.156902,8.543609 5.9759133,11.055192 c -1.3773858,2.972345 -2.2811231,6.140634 -2.944515,9.340958 -0.2325833,1.077818 0.871142,1.86016 1.8519961,1.525722 2.7168116,-0.567573 5.2699396,-1.758109 7.6727776,-3.124346 1.384756,-0.816758 2.71654,-1.744214 3.868623,-2.871917 z"/>
</svg>

<?xml version="1.0" encoding="UTF-8" standalone="no"?>
<svg width="24" xmlns="http://www.w3.org/2000/svg" viewBox="0 0 24 24" version="1.1" height="24">
 <circle cy="12.5" cx="12" r="10" style="opacity:.2"/>
 <circle style="fill:#248afd" cx="12" r="10" cy="12"/>
 <path style="opacity:.2" d="m12.205 3.5039c-0.684-0.0484-1.391 0.4681-1.863 0.9453-1.9789 1.9933-3.1844 4.5939-4.3654 7.1058-0.9181 1.981-1.6115 4.053-2.1778 6.16a10 10 0 0 0 1.543 1.73c0.0489-0.435 0.1965-0.911 0.2812-1.222 0.91-2.953 2.3204-5.717 3.6622-8.4886 0.5312-0.8758 0.9078-2.083 1.9788-2.4199 1.04-0.1162 1.724 0.8955 2.263 1.6328 2.078 3.1957 4.038 6.4747 5.785 9.8637a10 10 0 0 0 0.579 -0.674c-1.201-4.041-2.746-7.984-4.907-11.608-0.648-0.9572-1.239-1.997-2.113-2.7673-0.213-0.1643-0.438-0.2416-0.666-0.2578zm4.219 12.922c-3.187 1.582-6.4647 3.064-9.9299 3.914a10 10 0 0 0 1.9004 0.986c1.4338-0.574 2.8235-1.268 4.1625-2.029 1.384-0.817 2.715-1.744 3.867-2.871z"/>
 <path style="fill:#cccccc" d="m16.425 15.926c-3.3305 1.6538-6.7584 3.2059-10.397 4.0328-1.173-0.0057-0.59425-1.5397-0.40479-2.2348 0.90991-2.9527 2.3208-5.7171 3.6625-8.4891 0.53124-0.87581 0.90805-2.0828 1.9792-2.4198 1.0404-0.11612 1.724 0.89452 2.2629 1.6318 2.2036 3.3899 4.2846 6.8685 6.1097 10.478 0.462 0.941 0.915 1.886 1.363 2.834-1.332-5.462-3.126-10.881-6.017-15.73-0.648-0.957-1.238-1.996-2.112-2.7664-0.852-0.6573-1.9 0.0504-2.53 0.6867-1.9788 1.9933-3.1841 4.5943-4.3651 7.1057-1.3774 2.9723-2.2811 6.1406-2.9445 9.341-0.23258 1.0778 0.87114 1.8602 1.852 1.5257 2.7168-0.56757 5.2699-1.7581 7.6728-3.1243 1.3848-0.81676 2.7165-1.7442 3.8686-2.8719z"/>
 <path style="opacity:.2;fill:#ffffff" d="m12 2a10 10 0 0 0 -10 10 10 10 0 0 0 0.0098 0.293 10 10 0 0 1 9.9902 -9.793 10 10 0 0 1 9.99 9.707 10 10 0 0 0 0.01 -0.207 10 10 0 0 0 -10 -10z"/>
</svg>
